X:6182
T:Sous les toits de la rue Tiquetonne (D. Dencheau)
O:england
C:Trad 2, 40
M:3/4
L:1/8
K:C
F|:E3 D CB,|A,3C Ec|B3A FA|E6|\
F2A2B2|A2F2C2|B,C DE DC|B,4-B,F|
E3 D CB,|A,3C Ec|B3A FA|E6|\
F2A2B2|c2B2A2|E2c2B2|A4-AF:|
|:dB Fd BF|cA Ec AE|Bc de dc|e2 dc BA|\
dB Fd BF|cA Ec AE|Bc d2 cB|A6:|
P:Variation
F|:E3 D CB,|A,B, CD Ec|Bc BA FA|E6|\
F2AF BF|AE DC B,A,|B,C DE DC|B,2 C2 D2|
E3 D CB,|A,B, CD Ec|Bc BA FA|E6|\
F2AF BF|cE BE AE|E2 cE BE|A4 F2:|
|:FB dF Bd|EA cE Ac|Bc de dc|e2 dc BA|\
FB dF Bd|EA cE Ac|Bc d2 cB|A6:|
